X: 33017
T: Price Of My Pig, The
R: jig
M: 6/8
K: Aminor
|:EAA AGA|BAB GAB|cBA BAG|~A3 GED|
E2A AGA|BdB GAB|c2A BAG|1 A3 A2G:|2 A3 AB/c/d||
|:~e3 ded|c2c B2B|c2c BcB|ABA GED|
EAA AGA|B2B GAB|cBA BAG|1 A3 AB/c/d:|2 A3 A2G||

